Papirus/24x24/apps/citra.svg

<svg xmlns="http://www.w3.org/2000/svg" width="24" height="24" version="1.1">
 <path style="opacity:0.2" d="m 12,2.5 a 10,10 0 0 0 -10,10 10,10 0 0 0 10,10 10,10 0 0 0 10,-10 10,10 0 0 0 -10,-10 z"/>
 <path style="fill:#ff9426" d="M 12,2 A 10,10 0 0 0 2,12 10,10 0 0 0 12,22 10,10 0 0 0 22,12 10,10 0 0 0 12,2 Z"/>
 <circle style="opacity:0.2" cx="12" cy="12.5" r="8.5"/>
 <circle style="fill:#ffffff" cx="12" cy="12" r="8.5"/>
 <path style="opacity:0.2;fill:#ffffff" d="M 12,2 A 10,10 0 0 0 2.0705,10.926 10,9.5 0 0 1 12,2.5 10,9.5 0 0 1 21.961,11.2235 10,10 0 0 0 12,2 Z m 9.961,9.2235 A 10,10 0 0 1 22,12 10,9.5 0 0 0 21.961,11.2235 Z M 2.0705,10.926 A 10,9.5 0 0 0 2.0461,11.122 10,10 0 0 1 2.0705,10.926 Z M 2.0461,11.122 A 10,10 0 0 0 2.0002,12 10,9.5 0 0 1 2.0461,11.122 Z"/>
 <path style="fill:#d2e015" d="m 11.982422,4.5 c -0.824659,-0.00455 -1.593657,0.1878227 -1.964844,0.3974609 5e-4,0.00309 4.77e-4,0.00273 10e-4,0.00586 0.03154,0.1890561 0.105097,0.4829851 0.207031,0.8291016 0.203869,0.6922325 0.522051,1.6054455 0.853516,2.5078125 0.441755,1.202616 0.657991,1.722381 0.919922,2.3798825 0.264971,-0.657005 0.485496,-1.1786785 0.930664,-2.381836 0.333742,-0.902005 0.651879,-1.8141665 0.853516,-2.5048825 0.100818,-0.345358 0.172307,-0.638085 0.201171,-0.8242186 C 13.590737,4.699673 12.806301,4.50455 11.982422,4.5 Z"/>
 <path style="fill:#c74a30" d="m 11.999024,13.379883 c -0.261932,0.657502 -0.478168,1.177267 -0.919922,2.379883 -0.331465,0.902367 -0.649647,1.815579 -0.853516,2.507812 -0.101935,0.346116 -0.175486,0.640045 -0.207031,0.829101 -5.5e-4,0.0032 -4.8e-4,0.0027 -10e-4,0.0059 0.371162,0.209639 1.140184,0.402011 1.964844,0.397461 0.823879,-0.0045 1.608315,-0.199673 2.001953,-0.409179 C 13.955486,18.904687 13.883998,18.61196 13.783179,18.266602 13.581542,17.575886 13.263405,16.663724 12.929664,15.76172 12.484496,14.558562 12.26397,14.036889 11.999,13.379884 Z"/>
 <path style="fill:#ff769d" d="m 19.102539,10.017578 c -0.0031,5e-4 -0.0027,4.77e-4 -0.0059,10e-4 -0.189056,0.03154 -0.482985,0.105097 -0.829101,0.207031 -0.692233,0.203869 -1.605446,0.522051 -2.507813,0.853516 -1.202616,0.441755 -1.722381,0.657991 -2.379882,0.919922 0.657005,0.264971 1.178678,0.485496 2.381836,0.930664 0.902004,0.333742 1.814166,0.651879 2.504882,0.853516 0.345358,0.100818 0.638085,0.172307 0.824219,0.201171 0.209507,-0.393661 0.40463,-1.178097 0.40918,-2.001976 0.0045,-0.824659 -0.187823,-1.593681 -0.397461,-1.964844 z"/>
 <path style="fill:#f9a726" d="M 4.8974609,10.017578 C 4.6878225,10.388741 4.4954469,11.157763 4.5,11.982422 c 0.00455,0.823879 0.1996729,1.608292 0.4091797,2.001953 0.1861338,-0.02886 0.4788608,-0.100354 0.8242188,-0.201172 0.690716,-0.201637 1.602878,-0.519774 2.5048825,-0.853515 1.2031575,-0.445169 1.724831,-0.665694 2.381836,-0.930664 C 9.9626155,11.737092 9.4428505,11.520856 8.2402345,11.079102 7.3378675,10.747637 6.4246545,10.429455 5.732422,10.225586 5.3863055,10.123651 5.0923765,10.0501 4.9033203,10.018555 c -0.00313,-5.5e-4 -0.00278,-4.8e-4 -0.00586,-10e-4 z"/>
 <path style="fill:#89dc3c" d="m 15.621094,5.576172 c -0.0019,0.0027 -0.0019,0.0022 -0.0039,0.0049 -0.111377,0.1559895 -0.266791,0.4156025 -0.439453,0.732422 -0.345325,0.6336395 -0.766233,1.503526 -1.169922,2.3759765 -0.537918,1.1625455 -0.752485,1.6837805 -1.032227,2.3339845 0.652027,-0.277253 1.175552,-0.490513 2.34082,-1.026367 C 16.190217,9.595265 17.0614,9.175927 17.692389,8.8300955 18.007884,8.65718 18.264973,8.4998965 18.416998,8.3886895 18.286663,7.9621565 17.870228,7.2702255 17.291022,6.684588 16.711373,6.0985025 16.031876,5.6906515 15.6211,5.5761895 Z"/>
 <path style="fill:#dc6e33" d="m 11.023438,12.975586 c -0.650204,0.279742 -1.1714395,0.494309 -2.333985,1.032227 -0.8724505,0.403689 -1.742337,0.824596 -2.3759765,1.169922 -0.3168195,0.172662 -0.5764325,0.328076 -0.732422,0.439453 -0.00275,0.0019 -0.00225,0.002 -0.0049,0.0039 0.114462,0.410775 0.522313,1.090272 1.1083985,1.669921 0.5856375,0.579206 1.2775685,0.995641 1.7041015,1.125976 0.111207,-0.152025 0.2684905,-0.409114 0.441406,-0.724609 0.3458315,-0.630989 0.7651695,-1.502171 1.1669925,-2.375977 0.535854,-1.165267 0.749115,-1.688793 1.026367,-2.34082 z"/>
 <path style="fill:#dd4f3c" d="m 12.976563,12.975586 c 0.277252,0.652027 0.490513,1.175552 1.026367,2.34082 0.401823,0.873805 0.821161,1.744987 1.166992,2.375977 0.172916,0.315494 0.330199,0.572583 0.441406,0.724609 0.426533,-0.130336 1.118464,-0.54677 1.704101,-1.125977 0.586086,-0.579649 0.993937,-1.259146 1.108399,-1.669921 -0.0027,-0.0019 -0.0022,-0.0019 -0.0049,-0.0039 -0.15599,-0.111377 -0.415602,-0.266791 -0.732422,-0.439453 -0.63364,-0.345325 -1.503526,-0.766233 -2.375976,-1.169922 -1.162546,-0.537918 -1.683781,-0.752485 -2.333985,-1.032227 z"/>
 <path style="fill:#f8e12e" d="M 8.378906,5.576172 C 7.9681295,5.690634 7.2886335,6.098485 6.7089845,6.6845705 6.129778,7.270208 5.7133435,7.962139 5.583008,8.388672 5.7350335,8.499879 5.9921225,8.6571625 6.307617,8.830078 6.9386065,9.1759095 7.809789,9.5952475 8.683594,9.9970705 9.848862,10.532925 10.372387,10.746185 11.024414,11.023438 10.744673,10.373234 10.530105,9.8519985 9.9921875,8.689453 9.5884985,7.8170025 9.167591,6.947116 8.8222655,6.3134765 8.649603,5.996657 8.494189,5.737044 8.3828125,5.5810545 c -0.00195,-0.00275 -0.002,-0.00225 -0.0039,-0.0049 z"/>
</svg>

<svg xmlns="http://www.w3.org/2000/svg" width="24" height="24" version="1.1">
 <path style="opacity:0.2" d="m 12,2.5 a 10,10 0 0 0 -10,10 10,10 0 0 0 10,10 10,10 0 0 0 10,-10 10,10 0 0 0 -10,-10 z"/>
 <path style="fill:#ff9426" d="M 12,2 A 10,10 0 0 0 2,12 10,10 0 0 0 12,22 10,10 0 0 0 22,12 10,10 0 0 0 12,2 Z"/>
 <circle style="opacity:0.2" cx="12" cy="12.5" r="8.5"/>
 <circle style="fill:#ffffff" cx="12" cy="12" r="8.5"/>
 <path style="opacity:0.2;fill:#ffffff" d="M 12,2 A 10,10 0 0 0 2.0705,10.926 10,9.5 0 0 1 12,2.5 10,9.5 0 0 1 21.961,11.2235 10,10 0 0 0 12,2 Z m 9.961,9.2235 A 10,10 0 0 1 22,12 10,9.5 0 0 0 21.961,11.2235 Z M 2.0705,10.926 A 10,9.5 0 0 0 2.0461,11.122 10,10 0 0 1 2.0705,10.926 Z M 2.0461,11.122 A 10,10 0 0 0 2.0002,12 10,9.5 0 0 1 2.0461,11.122 Z"/>
 <path style="fill:#f8e12e" d="M 15.621,5.5762 C 15.619,5.5789 15.619,5.5784 15.617,5.5811 15.506,5.7371 15.35,5.9967 15.178,6.3135 14.832,6.9471 14.412,7.817 14.008,8.6895 13.47,9.852 13.255,10.373 12.976,11.023 13.628,10.746 14.151,10.533 15.316,9.9971 16.19,9.5953 17.061,9.1759 17.692,8.8301 18.008,8.6572 18.265,8.4999 18.417,8.3887 18.287,7.9622 17.87,7.2702 17.291,6.6846 16.711,6.0985 16.032,5.6907 15.621,5.5762 Z M 11.982,4.5 C 11.158,4.4954 10.389,4.6878 10.018,4.8975 10.018,4.9006 10.018,4.9002 10.019,4.9033 10.05,5.0924 10.124,5.3863 10.226,5.7324 10.429,6.4247 10.748,7.3379 11.079,8.2402 11.521,9.4429 11.737,9.9626 11.999,10.62 12.264,9.9631 12.485,9.4414 12.93,8.2383 13.263,7.3363 13.582,6.4241 13.783,5.7334 13.884,5.388 13.956,5.0953 13.984,4.9092 13.591,4.6997 12.806,4.5045 11.982,4.5 Z"/>
 <path style="fill:#f9a726" d="M 8.3789,5.5762 C 7.9681,5.6906 7.2886,6.0985 6.709,6.6846 6.1298,7.2702 5.7133,7.9621 5.583,8.3887 5.735,8.4999 5.9921,8.6572 6.3076,8.8301 6.9386,9.1759 7.8098,9.5952 8.6836,9.9971 9.8489,10.533 10.372,10.746 11.024,11.023 10.745,10.373 10.53,9.852 9.9922,8.6895 9.5885,7.817 9.1676,6.9471 8.8223,6.3135 8.6496,5.9967 8.4942,5.737 8.3828,5.5811 8.3809,5.5783 8.3808,5.5788 8.3789,5.5762 Z M 11.023,12.976 C 10.373,13.255 9.852,13.47 8.6895,14.008 7.817,14.412 6.9471,14.832 6.3135,15.178 5.9967,15.35 5.737,15.506 5.5811,15.617 5.5783,15.619 5.5788,15.619 5.5762,15.621 5.6906,16.032 6.0985,16.711 6.6846,17.291 7.2702,17.87 7.9621,18.287 8.3887,18.417 8.4999,18.265 8.6571,18.008 8.8301,17.692 9.1759,17.061 9.5952,16.19 9.9971,15.316 10.533,14.151 10.746,13.628 11.023,12.976 Z M 4.8975,10.018 C 4.6878,10.389 4.4954,11.158 4.5,11.982 4.5045,12.806 4.6997,13.591 4.9092,13.984 5.0953,13.956 5.388,13.884 5.7334,13.783 6.4241,13.582 7.3363,13.263 8.2383,12.93 9.4414,12.485 9.9631,12.264 10.62,11.999 9.9626,11.737 9.4429,11.521 8.2402,11.079 7.3379,10.748 6.4247,10.429 5.7324,10.226 5.3863,10.124 5.0924,10.05 4.9033,10.019 4.9002,10.018 4.9005,10.018 4.8975,10.018 Z M 19.103,10.018 C 19.099,10.018 19.1,10.018 19.097,10.019 18.908,10.05 18.614,10.124 18.268,10.226 17.575,10.429 16.662,10.748 15.76,11.079 14.557,11.521 14.037,11.737 13.38,11.999 14.037,12.264 14.559,12.485 15.762,12.93 16.664,13.263 17.576,13.582 18.267,13.783 18.612,13.884 18.905,13.956 19.091,13.984 19.3,13.591 19.495,12.806 19.5,11.982 19.504,11.158 19.312,10.389 19.102,10.018 Z M 11.999,13.38 C 11.737,14.037 11.521,14.557 11.079,15.76 10.748,16.662 10.429,17.575 10.226,18.268 10.124,18.614 10.05,18.908 10.019,19.097 10.018,19.1 10.018,19.099 10.018,19.103 10.389,19.312 11.158,19.505 11.982,19.5 12.806,19.496 13.591,19.3 13.984,19.091 13.955,18.905 13.884,18.612 13.783,18.267 13.582,17.576 13.263,16.664 12.93,15.762 12.484,14.559 12.264,14.037 11.999,13.38 Z M 12.977,12.976 C 13.254,13.628 13.467,14.151 14.003,15.316 14.405,16.19 14.824,17.061 15.17,17.692 15.343,18.008 15.5,18.265 15.611,18.417 16.038,18.287 16.73,17.87 17.315,17.291 17.902,16.711 18.309,16.032 18.424,15.621 18.421,15.619 18.422,15.619 18.419,15.617 18.263,15.506 18.003,15.35 17.687,15.178 17.053,14.832 16.183,14.412 15.311,14.008 14.148,13.47 13.627,13.255 12.977,12.976 Z"/>
</svg>
